X:2514
T:Cantar d'Ánimes (CT 174)
R:Ánimes
C:Tradicional
S:Música Tradicional Asturiana, (C) Tello & Tito. Asturies, 2001.
S:http://pagina.de/MusTradAst <telloytito@asturies.org>
N:Canción de Ánimas, transcrita en Llanuces, ayuntamiento de Quirós.
N:Se canta en la misma forma que CT 179, con la sola direrencia que el golpe de campanilla se oye entre el 1º y 2º miembros de la frase y entre el 3º y 4º.
O:Llanuces (Quirós)
A:Asturies
Z:Cancioneru de Torner 174
M:6/8
L:1/8
Q:3/8=69
W:Ánimas del Purgatorio
W:son las que están a tu puerta;
W:si nos dais una limosna,
W:tendréis la gloria mui cierta.
K:Gm
G
|B2 B BBB|c2 B-B2 B|ccB A2 G|[M:9/8]AAG AAG A2A|
[M:6/8]G2 ^F-F2 B|d2 c AG^F|(A3/2B/4A/4)G-G2||


